X: 2
T: The Harvest Home
R: hornpipe
M: 4/4
L: 1/8
K: Dmaj
vcud | vD2 FA (DA)FA | vd(ef)c (dc)BA | v(e/f/g)fa (ga)fg | ve(dc)B (AG)FE |vD2 FA (DA)FA | d(ef)c (dc)BA | (e/f/g)fa (ge)cA | d(gf)e d2 AF |vD2 FA (DA)FA | d(ef)c (dc)BA | (e/f/g)fa (ga)fg | ve/uf/vedB (AG)FE |vD2 FA (DA)FA | d(ef)c (dc)BA | ve/uf/vgfa (ga)fg | d(gf)e d2 cd |v(eA)A/A/A (fA)A/A/(A | gA)fA eAA/A/A | v(e/f/g)fa g(gf)g | edcB A(GF)E|vD2 FA (DA)FA | d(ef)c (dc)BA | (e/f/g)fa (ge)cA | d(gf)e d2 cd |v(eA)A/A/A (fA)A/A/(A | gA)fA eAA/A/A | v(e/f/g)fa g(af)g | e/f/ed/c/B A/G/AF/G/E |vD2 FA (DA)FA | d(ef)c (dc)BA | (e/f/g)fa (ge)cA | d(gf)e d2 |


Tune 49	Setting 21792

